src/status/16/jamesdsp-tray.svg

<svg version="1.1" viewBox="0 0 16 16" xmlns="http://www.w3.org/2000/svg">
    <defs>
        <style id="current-color-scheme" type="text/css">.ColorScheme-Text { color:#ffffff; } .ColorScheme-Highlight { color:#4285f4; } .ColorScheme-NeutralText { color:#ff9800; } .ColorScheme-PositiveText { color:#4caf50; } .ColorScheme-NegativeText { color:#f44336; }</style>
    </defs>
    <path class="ColorScheme-Text" d="m2.5996094-2e-7c-0.7111104 0-1.4241891 0.1097359-1.9570313 0.6425781s-0.6425781 1.2459209-0.6425781 1.9570313v5.4003906a1 1 0 0 0 1 1 1 1 0 0 0 1-1v-5.4003906c0-0.3607309 0.050152-0.5007032 0.0625-0.5371094 0.036406-0.012348 0.1763785-0.0625 0.5371094-0.0625h10.800782c0.36073 0 0.500703 0.050151 0.537109 0.0625 0.012349 0.036406 0.0625 0.1763785 0.0625 0.5371094v1.4003906a1 1 0 0 0 1 1 1 1 0 0 0 1-1v-1.4003906c0-0.7111104-0.109736-1.4241891-0.642578-1.9570313s-1.245921-0.6425781-1.957031-0.6425781zm-0.5996094 6a2 2 0 0 0 2 2 2 2 0 0 0 2-2 2 2 0 0 0-2-2 2 2 0 0 0-2 2zm6-3a1 1 0 0 0-1 1v3.1816406a3 3 0 0 1 1-0.1816406 3 3 0 0 1 1 0.1738281v-3.1738281a1 1 0 0 0-1-1zm4 0a1 1 0 0 0-1 1v0.1835938a3 3 0 0 1 1-0.1835938 3 3 0 0 1 1 0.1796875v-0.1796875a1 1 0 0 0-1-1zm0 2a2 2 0 0 0-2 2 2 2 0 0 0 2 2 2 2 0 0 0 2-2 2 2 0 0 0-2-2zm3 2a1 1 0 0 0-1 1v5.4003912c0 0.36073-0.05015 0.500703-0.0625 0.537109-0.03641 0.012349-0.176379 0.0625-0.537109 0.0625h-10.800782c-0.3607309 0-0.5007032-0.050151-0.5371094-0.0625-0.012348-0.036406-0.0625-0.176379-0.0625-0.537109v-1.400391a1 1 0 0 0-1-1 1 1 0 0 0-1 1v1.400391c0 0.71111 0.1097359 1.424189 0.6425781 1.957031s1.2459209 0.642578 1.9570313 0.642578h10.800782c0.71111 0 1.424189-0.109736 1.957031-0.642578s0.642578-1.245921 0.642578-1.957031v-5.4003912a1 1 0 0 0-1-1zm-7 1a2 2 0 0 0-2 2 2 2 0 0 0 2 2.0000002 2 2 0 0 0 2-2.0000002 2 2 0 0 0-2-2zm-5 0.8164062v3.183594a1 1 0 0 0 1 1 1 1 0 0 0 1-1v-3.1816408a3 3 0 0 1-1 0.1816406 3 3 0 0 1-1-0.1835938zm10 1a3 3 0 0 1-1 0.1835938 3 3 0 0 1-1-0.1796875v2.1796877a1 1 0 0 0 1 1 1 1 0 0 0 1-1z" fill="currentColor"/>
</svg>

<svg xmlns="http://www.w3.org/2000/svg" width="16" height="16" version="1.1">
 <defs>
  <style id="current-color-scheme" type="text/css">
   .ColorScheme-Text { color:#ffffff; } .ColorScheme-Highlight { color:#4285f4; } .ColorScheme-NeutralText { color:#ff9800; } .ColorScheme-PositiveText { color:#4caf50; } .ColorScheme-NegativeText { color:#f44336; }
  </style>
 </defs>
 <path style="fill:currentColor" class="ColorScheme-Text" d="M 2.5996094,-2e-7 C 1.888499,-2e-7 1.1754203,0.1097357 0.6425781,0.6425779 0.1097359,1.1754201 0,1.8884988 0,2.5996092 v 5.4003906 a 1,1 0 0 0 1,1 1,1 0 0 0 1,-1 v -2 V 3.7792967 2.5996092 C 2,2.2388783 2.050152,2.098906 2.0625,2.0624998 c 0.036406,-0.012348 0.1763785,-0.0625 0.5371094,-0.0625 H 13.400391 c 0.36073,0 0.500703,0.050151 0.537109,0.0625 C 13.949849,2.0989058 14,2.2388783 14,2.5996092 v 1.4003906 a 1,1 0 0 0 1,1 1,1 0 0 0 1,-1 V 2.5996092 C 16,1.8884988 15.890264,1.1754201 15.357422,0.6425779 14.82458,0.1097357 14.111501,-2e-7 13.400391,-2e-7 Z M 2,5.9999998 a 2,2 0 0 0 2,2 2,2 0 0 0 2,-2 2,2 0 0 0 -2,-2 2,2 0 0 0 -2,2 z m 6,-3 a 1,1 0 0 0 -1,1 v 2 1.1816406 A 3,3 0 0 1 8,6.9999998 3,3 0 0 1 9,7.1738279 v -0.1738281 -3 a 1,1 0 0 0 -1,-1 z m 4,0 a 1,1 0 0 0 -1,1 v 0.1835938 a 3,3 0 0 1 1,-0.1835938 3,3 0 0 1 1,0.1796875 V 3.9999998 a 1,1 0 0 0 -1,-1 z m 0,2 a 2,2 0 0 0 -2,2 2,2 0 0 0 2,2 2,2 0 0 0 2,-2 2,2 0 0 0 -2,-2 z m 3,2 a 1,1 0 0 0 -1,1 v 1.2207031 4.1796881 c 0,0.36073 -0.05015,0.500703 -0.0625,0.537109 C 13.90109,13.949849 13.761121,14 13.400391,14 H 2.5996094 C 2.2388785,14 2.0989062,13.949849 2.0625,13.9375 2.050152,13.901094 2,13.761121 2,13.400391 V 12 A 1,1 0 0 0 1,11 1,1 0 0 0 0,12 v 1.400391 c 0,0.71111 0.1097359,1.424189 0.6425781,1.957031 C 1.1754203,15.890264 1.888499,16 2.5996094,16 H 13.400391 c 0.71111,0 1.424189,-0.109736 1.957031,-0.642578 C 15.890264,14.82458 16,14.111501 16,13.400391 V 7.9999998 a 1,1 0 0 0 -1,-1 z m -7,1 a 2,2 0 0 0 -2,2 A 2,2 0 0 0 8,12 a 2,2 0 0 0 2,-2.0000002 2,2 0 0 0 -2,-2 z M 3,8.816406 V 12 a 1,1 0 0 0 1,1 1,1 0 0 0 1,-1 V 9.9999998 8.8183592 A 3,3 0 0 1 4,8.9999998 3,3 0 0 1 3,8.816406 Z m 10,1 A 3,3 0 0 1 12,9.9999998 3,3 0 0 1 11,9.8203123 V 9.9999998 12 a 1,1 0 0 0 1,1 1,1 0 0 0 1,-1 z"/>
</svg>
